X:1
T:James Gibb editions
T:O Lord, be with us when we sail - Barnby
%%score [ ( 1 2 ) ( 3 4 ) ]
L:1/8
Q:1/4=147
M:4/4
K:F
V:1 treble nm="Midi_74"
V:2 treble 
V:3 bass nm="Midi_74"
V:4 bass 
V:1
"^Edward Arthur Dayman\n(1807-90)""^O Lord, be with us when we sail""^Joseph Barnby\n(1838-96)""^C.M." A2 | %1
 A2 d2 c2 A2 | G2 F2 G2 || A2 | F2 ED E2 E2 | A,6 ||[M:4/4] A2 | B2 A2 G2 d2 | ^c2 =BA d2 || _B2 | %10
 A2 GF E2 E2 | D6 || D4 D4 |] %13
V:2
 A2 | A2 d2 c2 A2 | G2 F2 G2 || A2 | F2 ED E2 E2 | A,6 ||[M:4/4] A2 | B2 A2 G2 d2 | ^c2 =BA d2 || %9
 !courtesy!_B2 | A2 GF E2 E2 | D6 || D4 D4 |] %13
V:3
 A,2 | A,2 D2 C2 A,2 | G,2 F,2 G,2 || A,2 | F,2 E,D, E,2 E,2 | A,,6 || %6
[M:4/4]"^1 O Lord, be with us when we sail\nUpon the lonely deep,\nOur Guard when on the silent deck\nThe midnight watch we keep.\n\n2 We need not fear, though all around\n'Mid rising winds we hear\nThe multitude of waters surge,\nFor Thou, O God, art near." A,2 | %7
 B,2 A,2 G,2 D2 | %8
 ^C2 =B,A,"^5 To Thee the Father, Thee the Son,\nWhom earth and sky adore,\nAnd Spirit, moving on the deep,\nBe praise for evermore." D2 || %9
 _B,2 | %10
"^3 The calm, the breeze, the gale, the storm\nThat pass from land to land,\nAll, all are Thine, are held within\nThe hollow of Thy hand.\n\n4 Across this troubled tide of life\nOur Pilot Thou abide\nUntil we reach that better land,\nBeyond both time and tide." A,2 G,F, E,2 E,2 | %11
 D,6 || D,4 D,4 |] %13
V:4
 A,2 | A,2 D2 C2 A,2 | G,2 F,2 G,2 || A,2 | F,2 E,D, E,2 E,2 | A,,6 ||[M:4/4] A,2 | %7
 B,2 A,2 G,2 D2 | ^C2 =B,A, D2 || B,2 | A,2 G,F, E,2 E,2 | D,6 || D,4 D,4 |] %13

